src/16/panel/kazam-countdown.svg

<svg xmlns="http://www.w3.org/2000/svg" width="16" height="16" version="1"><defs><style id="current-color-scheme" type="text/css"></style></defs><path d="M.182 2C-.473 2-1 2.534-1 3.2V12.8C-1 13.466-.473 14 .182 14h10.636c.655 0 1.182-.534 1.182-1.199V10l5 2V4l-5 2V3.2c0-.666-.527-1.2-1.182-1.2zM5 4a4 4 0 0 1 4 4 4 4 0 0 1-4 4 4 4 0 0 1-4-4 4 4 0 0 1 4-4zm0 1a3 3 0 0 0-3 3 3 3 0 0 0 3 3 3 3 0 0 0 3-3 3 3 0 0 0-3-3z" fill="currentColor" color="#bebebe"/></svg>

<svg xmlns="http://www.w3.org/2000/svg" width="16" height="16" version="1">
 <defs>
  <style id="current-color-scheme" type="text/css">
   .ColorScheme-Text { color:#dfdfdf; } .ColorScheme-Highlight { color:#4285f4; }
  </style>
 </defs>
 <path style="fill:currentColor" class="ColorScheme-Text" d="M 0.1816,2 C -0.4731,2 -1,2.5344 -1,3.1992 V 12.801 C -1,13.466 -0.4731,14 0.1816,14 H 10.818 C 11.473,14 12,13.466 12,12.801 V 10 L 17,12 V 4 L 12,6 V 3.1992 C 12,2.5344 11.473,2 10.818,2 Z M 5,4 A 4,4 0 0 1 9,8 4,4 0 0 1 5,12 4,4 0 0 1 1,8 4,4 0 0 1 5,4 Z M 5,5 A 3,3 0 0 0 2,8 3,3 0 0 0 5,11 3,3 0 0 0 8,8 3,3 0 0 0 5,5 Z"/>
</svg>
